icons/ArrowRightNarrow.svg

<svg width="24" height="24" viewBox="0 0 24 24" fill="none" xmlns="http://www.w3.org/2000/svg">
<path fill-rule="evenodd" clip-rule="evenodd" d="M19.5303,11.4697c0.2929,0.2929 0.2929,0.7677 0,1.0606l-4,4c-0.2929,0.2929 -0.7677,0.2929 -1.0606,0c-0.2929,-0.2929 -0.2929,-0.7677 0,-1.0606l2.7196,-2.7197h-12.1893c-0.41421,0 -0.75,-0.3358 -0.75,-0.75c0,-0.4142 0.33579,-0.75 0.75,-0.75h12.1893l-2.7196,-2.71967c-0.2929,-0.29289 -0.2929,-0.76777 0,-1.06066c0.2929,-0.29289 0.7677,-0.29289 1.0606,0z" fill="#002B51"/>
</svg>

<svg width="24" height="24" viewBox="0 0 24 24" fill="none" xmlns="http://www.w3.org/2000/svg">
<path fill-rule="evenodd" clip-rule="evenodd" d="M19.5303 11.4697C19.8232 11.7626 19.8232 12.2374 19.5303 12.5303L15.5303 16.5303C15.2374 16.8232 14.7626 16.8232 14.4697 16.5303C14.1768 16.2374 14.1768 15.7626 14.4697 15.4697L17.1893 12.75H5C4.58579 12.75 4.25 12.4142 4.25 12C4.25 11.5858 4.58579 11.25 5 11.25H17.1893L14.4697 8.53033C14.1768 8.23744 14.1768 7.76256 14.4697 7.46967C14.7626 7.17678 15.2374 7.17678 15.5303 7.46967L19.5303 11.4697Z" fill="#002B51"/>
</svg>
